X:1
T:Ballade
T:Ballade
T:CRAUDE DEBUSSY 
C:CRAUDE DEBUSSY
%%score { ( 1 3 6 ) | ( 2 4 5 ) }
L:1/8
Q:1/4=50
M:4/4
K:F
V:1 treble nm="Piano" snm="Pno."
V:3 treble 
V:6 treble 
V:2 bass 
V:4 bass 
V:5 bass 
V:1
"^Andantino con moto (Tempo rubato)"!pp! x6 z (E-[Q:1/4=54][Q:1/4=58][Q:1/4=50][Q:1/4=54][Q:1/4=58][Q:1/4=40] | %1
 E[Q:1/4=60]GEG[Q:1/4=55] F2[Q:1/4=50] DF) | %2
!pp![Q:1/4=50] x6 z (!tenuto!E-[Q:1/4=54][Q:1/4=58][Q:1/4=50][Q:1/4=54][Q:1/4=58][Q:1/4=40] | %3
 E[Q:1/4=60]GEG F2[Q:1/4=50] DF) | %4
[I:staff +1] (6:4:6(E,,/=B,,/E,/"^rit."[Q:1/4=48][I:staff -1]^G,/D/=B/)[Q:1/4=46][I:staff +1] (6:4:6(E,/=B,/E/[Q:1/4=44][I:staff -1]^G/d/=b/-)[Q:1/4=40] b e2 !fermata!e- | %5
!pp!"^Tempo"[Q:1/4=58] e(g[Q:1/4=72]eg[Q:1/4=80] f2 df | e2 ce d2 cd | egeg f2 df | %8
 e2 ce d2[Q:1/4=70] c[Q:1/4=60]d) | %9
!pp! !tenuto!g2[Q:1/4=70] !tenuto!a2[Q:1/4=80] !tenuto!g2 !tenuto!a2 | %10
 !tenuto!g2 !tenuto!a2!p!!>(! !tenuto!e2[Q:1/4=70] !tenuto!f2[Q:1/4=60]!>)! | %11
!pp![Q:1/4=70]"_cresc." !tenuto!g2[Q:1/4=80] !tenuto!a2 !tenuto!g2 !tenuto!a2 | %12
 !tenuto!g2[Q:1/4=84] !tenuto!a2[Q:1/4=88] !tenuto!c'4[Q:1/4=75][Q:1/4=70] | %13
!mf![Q:1/4=76] (c'2[Q:1/4=80] d'2 a2 g2 |"_dim." f2 g2 d3 c) |"_più dim." (B2 c2 A2 G2 | %16
!p! F2 G2 D3[Q:1/4=76][Q:1/4=72] E) |[Q:1/4=80] (F2"^cresc." G2 D2 F2) | %18
[Q:1/4=75]"^e        rit.       in        poco" (A2[Q:1/4=70] =B4[Q:1/4=65][Q:1/4=60] d2)[Q:1/4=50] | %19
"^a Tempo"[Q:1/4=72]!p! (e[Q:1/4=80]geg f2 df) | %20
!<(! (e2 c!<)!!p!e!pp![Q:1/4=76] [Bd]2[Q:1/4=72] cd) |!p![Q:1/4=76] (e[Q:1/4=80]geg f2 df) | %22
!<(! (e2 c!<)!!p!e!pp![Q:1/4=76] [Bd]2[Q:1/4=72] c[Q:1/4=68]d) | %23
 ([Aa][Q:1/4=76][cc'][Q:1/4=80][Aa][cc'] [Aa]2 [Ff][Gg] | %24
 [Aa][cc']"_cresc."[Aa][cc'] [Aa]2[Q:1/4=76] [Ff][Gg]) | %25
!mf![Q:1/4=80] ([Aa][Gg] (3[Ff][Gg][Aa]!mf! ([cc'])[=B=b][Aa][Gg]) | %26
!f! ([Aa][Gg] (3[Ff][Gg][Aa]) ([cc'][=B=b]a[Gg]) |[Q:1/4=78] (agfe- e f2[Q:1/4=72] d- | %28
 d"_poco rit."[Q:1/4=68]"_dim." [DFA]2[Q:1/4=64] [=B,DF])[Q:1/4=68] [Gc-]4[Q:1/4=60] | %29
!p!"^a Tempo"[Q:1/4=68] (c[Q:1/4=72]_e[Q:1/4=80]ce d2 cd) | %30
 ([c_e]2!<(! [df]!<)![eg]!p![Q:1/4=76] [dfa][Adf][Q:1/4=72][FAd][DFA]) | %31
!p![Q:1/4=68] (c[Q:1/4=72]_e[Q:1/4=80]ce d2 cd) | %32
[Q:1/4=76]!<(! ([c_e]2[Q:1/4=72] [df]!<)!!mp![Q:1/4=68][eg]!pp![Q:1/4=64] [_e_g_a][Q:1/4=60][ceg][Q:1/4=56][ce][Q:1/4=60][_Ac]) | %33
!p!"^Poco mosso" (_a[Q:1/4=72]_c'[Q:1/4=88]ac' g2 fg)[Q:1/4=68] | %34
 (_a2 [_ea_c'][ac'_e'][Q:1/4=76] [g=bd']2[Q:1/4=72] [dgb][=Bdg] | %35
!p![Q:1/4=76] _a[Q:1/4=80]_c'[Q:1/4=88]ac' g2 fg) | %36
!<(! _a2[Q:1/4=78] _c'_d'!<)!"_rit."!mp![Q:1/4=72] _e'2[Q:1/4=68][Q:1/4=64] _d[Q:1/4=60]_e[Q:1/4=40][Q:1/4=20] | %37
!pp!"_a Tempo"[Q:1/4=60]"^\n" =e[Q:1/4=68]g[Q:1/4=72]e[Q:1/4=80]g f2 df | %38
 (e2 ce d2)[Q:1/4=76] c[Q:1/4=72]d |!pp![Q:1/4=76] e[Q:1/4=80]geg f2 df | %40
!p![Q:1/4=72]!<(!!<(! (e2[Q:1/4=76][Q:1/4=72] c[Q:1/4=68]e!<)!!<)![Q:1/4=76]!<(! d4)[Q:1/4=72][Q:1/4=68]!<)! | %41
!p![Q:1/4=72] (e2[Q:1/4=76][Q:1/4=72] c[Q:1/4=68]e d4-)[Q:1/4=76][Q:1/4=72][Q:1/4=68] | %42
[Q:1/4=68] (d[Q:1/4=72]f[Q:1/4=68]d[Q:1/4=64]f)[Q:1/4=68] (g[Q:1/4=72]"^\n"b[Q:1/4=68]"^\n"g[Q:1/4=64]b) | %43
[Q:1/4=60] (d'[Q:1/4=52]f'[Q:1/4=48]d'[Q:1/4=40]f')[Q:1/4=30][Q:1/4=50]!8va(! [c'a'c'']2!8va)![Q:1/4=64]!pp! !tenuto![A,A]2- | %44
 [A,A]2[Q:1/4=60] !tenuto!A,4[Q:1/4=56] !tenuto!A,2- | %45
[K:bass]"^Animez peu à peu"!pp![Q:1/4=72] x8[Q:1/4=80][Q:1/4=84] | x4!<(! (C2!<)!!p!!>(! D2)!>)! | %47
!pp! x8 | x4!<(! (C2!<)! D2) | %49
[K:treble]!p![Q:1/4=88]!<(! ([DF]>[EG] [FA][G=B]/!<)![Ac]/)!mp!!>(! ([Ac] [GB]2!>)! [FA]-) | %50
!>(! ([FA][EG]/[FA]/ [DF]!>)![FA]!p![Q:1/4=82]!<(! [_B,EG]2)!<)!!mp![Q:1/4=74]!<(! [Beg]2!<)! | %51
!p![Q:1/4=88]!<(! ([DF]>[EG] [FA][G=B]/!<)![Ac]/)!mp!!>(! ([Ac] [GB]2!>)! [FA]-)[Q:1/4=84][Q:1/4=88] | %52
!>(! ([FA][EG]/[FA]/ [DF]!>)![FA]!p![Q:1/4=82]!<(! [_B,EG]2)!<)![Q:1/4=74]!<(! [Beg]2!<)! | %53
!mf![Q:1/4=88] (6:4:3a3/2x!<(!b/ c'd'/e'/ e'[Q:1/4=80] d'2[Q:1/4=72] f'[Q:1/4=64]!<)! | %54
!f![Q:1/4=60] a'2[Q:1/4=72][Q:1/4=88]!>(! g'f'!>)!!p! e'2 e2 | %55
!mf! (6:4:3(a3/2x!<(!_b/ c'd'/e'/) e'[Q:1/4=80] d'2[Q:1/4=70] f'[Q:1/4=60]!<)! | %56
!f![Q:1/4=56]!>(! (a'2[Q:1/4=72][Q:1/4=88] g'f'!>)! a2) gf- | %57
 ([df]2 ed-)[Q:1/4=80] (de[Q:1/4=72]de | %58
!p![Q:1/4=60] (c4-)[Q:1/4=72][Q:1/4=88][Q:1/4=80] c[Q:1/4=72]d[Q:1/4=64]c[Q:1/4=56]d | %59
!p! G4)[Q:1/4=68][Q:1/4=72][Q:1/4=88][Q:1/4=78] c[Q:1/4=80]d[Q:1/4=72]c[Q:1/4=64]d | %60
[Q:1/4=560] g2[Q:1/4=66][Q:1/4=88] fg (a"_cresc."=b[Q:1/4=80]ab | %61
[Q:1/4=60] ^g2[Q:1/4=72][Q:1/4=88][Q:1/4=80] ^f"_dim."g)"_rit."[Q:1/4=72] a[Q:1/4=64]=b[Q:1/4=56]a[Q:1/4=40]c'[Q:1/4=20] || %62
[K:E]!p!"^Molto calmato"[Q:1/4=60] [Begb]2[Q:1/4=68] (3GAB B G2 F[Q:1/4=64] | %63
 (3GFG[Q:1/4=60] EG[Q:1/4=68] F4 | %64
[Q:1/4=60] (e>[Ff][Q:1/4=68] (3[Gg][Aa][Bb] [Bb] [Gg]2 [Ff][Q:1/4=64] | %65
 (3[Gg][Ff][Gg][Q:1/4=64] [Ee][Gg][Q:1/4=68] [Ff]2[Q:1/4=64] [Ee]2) | %66
!pp! (3:2:2(a2[Q:1/4=68] c' (3:2:2e'2 f' (3:2:2g'2 g' (3:2:2e'2 c') | %67
 b2 (3:2:2=g2 b c'2[Q:1/4=64] ^g2[Q:1/4=60] | %68
[Q:1/4=64] (3:2:2(a2[Q:1/4=68] c' (3:2:2e'2 f' (3:2:2g'2 g' (3:2:2e'2 c') | %69
 (3:2:2(b2 b (3:2:2=g2 b c'2[Q:1/4=64] (3:2:2^g2[Q:1/4=60] g) | %70
[Q:1/4=68] c'2[Q:1/4=72] (3:2:2^a2 c' d'2 b2 | %71
[Q:1/4=76] (3:2:2(c'2 g (3:2:2^a2 c' (3:2:2d'2 d' (3:2:2b2 g) | %72
!f![Q:1/4=80] ([gg']2 (3:2:2([ff']2[Q:1/4=70] [gg']))[Q:1/4=80] ([dd']2 (3:2:2([cc']2[Q:1/4=70] [dd'])) | %73
[Q:1/4=80] ([Gg]2 (3:2:2([Ff]2[Q:1/4=70] [Gg]))[Q:1/4=80] ([Dd]2[Q:1/4=72] (3:2:2[Cc]2[Q:1/4=64] [B,B]) | %74
[Q:1/4=68]!mf!"_dim." [GB]4- ([GB] G2[Q:1/4=64] B)[Q:1/4=72] | %75
 (c2[Q:1/4=68] G2-)[Q:1/4=60] G[Q:1/4=52] (G2[Q:1/4=44] B | %76
!p![Q:1/4=40] (3[ABf][Q:1/4=50][GBe][Q:1/4=60][FGB] (3[EG][DE][Q:1/4=50][CEF]) ([=CEG] [DE]2[Q:1/4=42] [^CEF]) | %77
[Q:1/4=50] ([=CEG]"_rit."[Q:1/4=45] [DE]2[Q:1/4=40] [^CEF])!pp! [G,DG]4 | %78
!pp!"^a Tempo"[Q:1/4=64] [gg']8-[Q:1/4=68] | [gg']8[Q:1/4=64] | %80
[Q:1/4=60] ([gd'g']2 [Gdg]2) ([gd'g']2 [Gdg]2-) |[Q:1/4=64]!pp! [Gdg]8[Q:1/4=68] | x8[Q:1/4=70] | %83
[Q:1/4=54] (!arpeggio![xGBdg]4[Q:1/4=54] !arpeggio![xGBdg]4)[Q:1/4=64][Q:1/4=64] | %84
[Q:1/4=54] (!arpeggio![xBdgb]4[Q:1/4=54] !arpeggio![xc^e^ac']4)[Q:1/4=64][Q:1/4=64] || %85
[K:C]"_très retenu"[Q:1/4=54] (!arpeggio![x_A_c_e_a]4[Q:1/4=54] !arpeggio![xcea_c']4[Q:1/4=64][Q:1/4=64] | %86
[Q:1/4=54] !arpeggio![x_df_b_d']4!ppp![Q:1/4=54] !arpeggio![x_e_a_c'_e']4)[Q:1/4=64][Q:1/4=20][Q:1/4=24][Q:1/4=28][Q:1/4=32] || %87
[K:F]!pp!"^Ⅰ Tempo"[Q:1/4=64]!8va(! e'[Q:1/4=64]g'e'[Q:1/4=80]g'[Q:1/4=58] f'2[Q:1/4=64] d'[Q:1/4=72]f' | %88
[Q:1/4=58] e'2[Q:1/4=64] c'[Q:1/4=72]e'[Q:1/4=58] d'2[Q:1/4=64] c'[Q:1/4=90]d' | %89
[Q:1/4=40] e'[Q:1/4=64]g'e'[Q:1/4=72]g'[Q:1/4=58] f'2[Q:1/4=64] d'[Q:1/4=72]f' | %90
[Q:1/4=58] e'2[Q:1/4=64] c'[Q:1/4=72]e'[Q:1/4=58] d'2!8va)![Q:1/4=64] c[Q:1/4=60]d | %91
[Q:1/4=58] ([Aa][Q:1/4=64][cc'][Aa][cc'] [Aa]2[Q:1/4=60] [Ff][Gg]) | %92
[Q:1/4=58] ([Aa][Q:1/4=64][cc'][Aa][cc'] [Aa]2[Q:1/4=60] FG) | %93
!p![Q:1/4=52] A[Q:1/4=64]cAc A2[Q:1/4=60] F[Q:1/4=56]G | %94
[Q:1/4=60] z2!pp! !arpeggio!!tenuto![cc']2[Q:1/4=56]!p! z2!pp![Q:1/4=52] !arpeggio!!tenuto![^c^c']2[Q:1/4=80] | %95
!p![Q:1/4=56] A[Q:1/4=64]cAc A2[Q:1/4=60] F[Q:1/4=56]G | %96
[Q:1/4=58] z2!pp! !arpeggio!!tenuto![dd']2[Q:1/4=52]!p! z2!pp![Q:1/4=48] !arpeggio!!tenuto![ee']2 | %97
[Q:1/4=40]!pp! (3z[Q:1/4=64] (fg (3abc' c' a2[Q:1/4=60] g) | %98
[Q:1/4=44] (3(a[Q:1/4=64]ga f[Q:1/4=78]a[Q:1/4=64] g4) | %99
[Q:1/4=60] (3z[Q:1/4=64] (FG (3ABc c A2[Q:1/4=60] G) | %100
[Q:1/4=56] (3(A[Q:1/4=64]GA[Q:1/4=60] F[Q:1/4=56]A[Q:1/4=64] G4) | %101
"_retenu"[Q:1/4=56] (3(a[Q:1/4=60]ga[Q:1/4=56] f[Q:1/4=78]a)!pp![Q:1/4=48]"^m.g" c'4- | %102
 c'4[Q:1/4=44] c'4 |[Q:1/4=50] !arpeggio![GAcgc']8[Q:1/4=62][Q:1/4=48][Q:1/4=54][Q:1/4=58] | %104
[Q:1/4=40] !arpeggio![FAcfc']8[Q:1/4=52][Q:1/4=48][Q:1/4=30][Q:1/4=44][Q:1/4=48] |] %105
V:2
!ped! (6:4:6(C,,/G,,/E,/[I:staff -1]B,/D/B/)[I:staff +1] (6:4:6(C,/G,/E/-[I:staff -1] B/d/b/)[I:staff +1] E !tenuto!E3!ped-up! | %1
!ped! [D,,B,,]8!ped-up! | %2
!ped! (6:4:6(C,,/G,,/E,/[I:staff -1]B,/D/B/)[I:staff +1] (6:4:6(C,/G,/E/-[I:staff -1]B/d/b/)[I:staff +1] E E3!ped-up! | %3
!ped! [D,,B,,]8!ped-up! |!ped! x8!ped-up! |!ped! (3(A,CE G2)!ped-up!!ped! (3(B,DF-) F2!ped-up! | %6
!ped! (3(F,A,C-) E2!ped-up!!ped! (3(G,B,D) z2!ped-up! | %7
!ped! (3(A,CE G2)!ped-up!!ped! (3(B,DF-) F2!ped-up! | %8
!ped! (3(F,A,C-) E2!ped-up!!ped! (3(G,B,D-) D2!ped-up! | %9
!ped! (C,/G,/B,/D/ FE)!ped-up!!ped! (C,/G,/B,/D/ FE)!ped-up! | %10
!ped! (C,/G,/B,/D/ FE)!ped-up!!ped! (5:4:5(F,,/C,/F,/A,/C/ (3EDC)!ped-up! | %11
!ped! (C,/G,/B,/D/ FE)!ped-up!!ped! (C,/G,/B,/D/ FE)!ped-up! | %12
!ped! (C,/G,/B,/D/ FE)!ped-up!!ped! (6:4:6(F,,/C,/_E,/A,/C/_E/ (3AGF)!ped-up! | %13
!ped! (5:4:5(B,,/F,/B,/D/F/) (3(AGF)!ped-up!!ped! (F2 E2)!ped-up! | %14
!ped! (G,,/D,/G,/B,/ (3EDC)!ped-up!!ped! C B,2 A,!ped-up! | %15
!ped! (G,2 (3A,G,F,!ped-up!!ped! F,2 E,2)!ped-up! | %16
!ped! (D,2 (3E,D,C,!ped-up!!ped! C, B,,2 C,)!ped-up! | %17
!ped! (D,2 (3E,D,C,!ped-up!!ped! C, B,,2 _A,,)!ped-up! | %18
!ped! (3(G,,,G,,D, (3F,A,=B, (3DFA (3FDB,)!ped-up! | %19
!ped! _B,2!ped-up!!ped! A,2!ped-up!!ped! _A,2!ped-up!!ped! G,2!ped-up! | %20
!ped! (3(^F,/A,/C/ (3E/[I:staff -1]^F/A/) (6:4:6(c/A/F/[I:staff +1]E/C/A,/)!ped-up!!ped![I:staff -1] (3=FDF- F[I:staff +1] x!ped-up! | %21
!ped! B,2!ped-up!!ped! A,2!ped-up!!ped! _A,2!ped-up!!ped! G,2!ped-up! | %22
!ped! (3(^F,/A,/C/ (3E/[I:staff -1]^F/A/) (6:4:6(c/A/F/[I:staff +1]E/C/A,/)!ped-up!!ped![I:staff -1] (3=FDF- F[I:staff +1] x!ped-up! | %23
!ped! (6:4:6(C,,/G,,/E,/G,/B,/C/ E2)!ped-up!!ped! (6:4:6(D,,/A,,/D,/F,/A,/D/- D2)!ped-up! | %24
!ped! (6:4:6(E,,/C,/E,/G,/B,/C/ E2)!ped-up!!ped! (6:4:6(F,,/C,/_E,/F,/A,/C/ _E2)!ped-up! | %25
!ped! (6:4:6(B,,,/F,,/!<(!B,,/D,/F,/B,/ D2)!ped-up!!ped! (6:4:6(G,,/!<)!D,/F,/G,/=B,/D/ F2)!ped-up! | %26
!ped! (6:4:6(B,,,/F,,/B,,/D,/F,/B,/ D2)!ped-up!!ped! (6:4:6(G,,/D,/F,/G,/=B,/D/ F2-)!ped-up! | %27
!ped! (FED^C-!ped-up!!ped! CD=C=B,)!ped-up! |!ped! (A,=B,A,G,)!ped-up!!ped! z (G,2 C)!ped-up! | %29
!ped! x2 B,2!ped-up!!ped! A,4!ped-up! | %30
!ped! G, B A x!ped-up!!ped! (6:4:6(D,,/A,,/D,/F,/A,/D/- D) z!ped-up! | %31
!ped! x2 B,2!ped-up!!ped! A,4!ped-up! | %32
!ped! (6:4:6G,/C/_E/G/E/C/ (6:4:6_E,/G,/C/E/C/G,/!ped-up!!ped! (6:4:6(_A,,,/_A,,/_E,/_A,/C/_E/ _G2)!ped-up! | %33
!ped! (6:4:6(F,/_C/_E/_A/E/A/ (6:4:6E/A/E/A/E/C/)!ped-up!!ped! (6:4:6(D,/G,/=B,/F/B,/F/ (6:4:6B,/F/B,/F/B,/G,/)!ped-up! | %34
!ped!!<(! (6:4:6(F,/_C/_E/_A/E/A/ (6:4:6E/A/E/A/E/C/)!ped-up!!ped! (6:4:6(=B,/D/F/!<)!!mp!G/F/!>(!G/ F2)!ped-up!!>)! | %35
!ped! (6:4:6(F,/_C/_E/_A/E/A/ (6:4:6E/A/E/A/E/C/)!ped-up!!ped! (6:4:6(D,/G,/=B,/F/B,/F/ (6:4:6B,/F/B,/F/B,/G,/)!ped-up! | %36
!ped! (6:4:6(F,/_C/_E/_A/E/A/ (6:4:6E/A/E/A/E/A/)!ped-up!!ped! (6:4:6(_D,,/_A,,/_D,/F,/_A,/_C/ _D_E)!ped-up! | %37
!ped! ([C,,G,,]E, G,[B,C])!ped-up!!ped! (D,,B,, F,[B,D])!ped-up! | %38
!ped! x4!ped-up!!ped! z!<(! (F,G,F,)!ped-up!!<)! | %39
!ped! ([C,,G,,]E, G,[B,C])!ped-up!!ped! (D,,B,, F,[B,D])!ped-up! | %40
!ped! (A,,E,CE,!ped-up!!ped! [D,A,]4)!ped-up! |!ped! x4!ped-up!!ped! z F,G,A,-!ped-up! | %42
!ped! (A,"_mo         _        ren         _         do"B,A,B,)!ped-up!!ped! (CDCD)!ped-up! | %43
[K:treble]!ped! FGFG!ped-up![K:bass]!ped! C,,4 | z2!ped-up!!ped! A,,6-!ped-up! | %45
!ped! (A,,>=B,, C,D,/E,/)!ped-up!!ped! (E,D,- D,C,)!ped-up! | %46
!ped! (=B,,A,,/B,,/ G,,B,,)!ped-up!!ped! A,,4!ped-up! | %47
!ped! (A,,>=B,, C,D,/E,/)!ped-up!!ped! (E,D,- D,C,)!ped-up! | %48
!ped! (=B,,A,,/B,,/ G,,B,,!ped-up!!ped! A,,4)!ped-up! | %49
!ped! (6:4:6(G,,,/D,,/G,,/D,/F,/A,/) (6:4:6(C/A,/F,/D,/G,,/D,,/)!ped-up!!ped! (6:4:6(G,,,/D,,/G,,/D,/F,/A,/) (6:4:6(C/A,/F,/D,/G,,/D,,/)!ped-up! | %50
!ped! (6:4:6(G,,,/D,,/G,,/D,/F,/A,/) (6:4:6(C/A,/F,/D,/G,,/D,/)!ped-up!!ped! (6:4:6(C,,/G,,/D,/E,/G,/C/ E2)!ped-up! | %51
!ped! (6:4:6(G,,,/D,,/G,,/D,/F,/A,/) (6:4:6(C/A,/F,/D,/G,,/D,,/)!ped-up!!ped! (6:4:6(G,,,/D,,/G,,/D,/F,/A,/) (6:4:6(C/A,/F,/D,/G,,/D,,/)!ped-up! | %52
!ped! (6:4:6(G,,,/D,,/G,,/D,/F,/A,/) (6:4:6(C/A,/F,/D,/G,,/D,/)!ped-up!!ped! (6:4:6(C,,/G,,/D,/E,/G,/C/ E2)!ped-up! | %53
[K:treble]!ped! (F>G AB/c/)!ped!!ped-up! (c B2 A)!ped-up!!ped! | %54
 [FAd]2 [G=Be][FAd]!ped-up![K:bass]!ped! (3(E,,=B,,D,) (3(E,=B,D)!ped-up! | %55
[K:treble]!ped! (F>G A_B/c/)!ped!!ped-up! (c B2 A)!ped-up!!ped! | %56
 [FAd]2 [G=Be][FAd]!ped-up!!ped! (F2 ED-)!ped-up! | %57
[K:bass]!ped! (D2!ped-up!!ped! [G,=B,]!ped-up!!ped![F,A,]-) ([F,A,]!ped-up!!ped![G,B,]!ped-up!!ped![F,A,]!ped-up!!ped![G,B,])!ped-up! | %58
!ped! G,4!ped-up!!ped! G,4!ped-up! |!ped! z F,,2 F,,!ped-up!!ped! G,2 A,2!ped-up! | %60
!ped! B,,F,B,D!ped-up![K:treble]!ped! (FGFG)!ped-up! |!ped! E=B,DE!ped-up!!ped! =FGFG!ped-up! || %62
[K:E][K:bass]!p!!ped! (5:4:5(E/B,/G,/E,/B,,/ (5:4:5E,,/B,,/E,/G,/B,/)!ped-up!!ped! (5:4:5(E/B,/G,/E,/B,,/ (5:4:5E,,/B,,/E,/G,/B,/)!ped-up! | %63
!ped! D4!ped-up!!ped! C4!ped-up! |!ped! E4!ped-up!!ped! E4!ped-up! | %65
!ped! D4!ped-up!!ped! =D4!ped-up!!ped!!ped-up! | %66
!pp!!ped! (6:4:6(E,,/B,,/E,/A,/C/E/ (6:4:6A/E/C/A,/E,/B,,/)!ped-up!!ped! (6:4:6(E,,/C,/E,/G,/C/E/ (6:4:6G/E/C/G,/E,/C,/)!ped-up! | %67
!ped! (6:4:6(E,,/B,,/D,/=G,/B,/D/ (6:4:6=G/D/B,/G,/D,/B,,/)!ped-up!!ped! (6:4:6(E,,/C,/E,/^G,/C/E/ (6:4:6^G/E/C/G,/E,/C,/)!ped-up! | %68
!ped! (6:4:6(E,,/B,,/E,/A,/C/E/ (6:4:6A/E/C/A,/E,/B,,/)!ped-up!!ped! (6:4:6(E,,/C,/E,/G,/C/E/ (6:4:6G/E/C/G,/E,/C,/)!ped-up! | %69
!ped! (6:4:6(E,,/B,,/D,/=G,/B,/D/ (6:4:6=G/D/B,/G,/D,/B,,/)!ped-up!!ped! (6:4:6(E,,/C,/E,/^G,/C/E/ (6:4:6^G/E/C/G,/E,/C,/)!ped-up! | %70
!ped! (6:4:6(D,,/^A,,/E,/G,/C/E/ (6:4:6G/E/"_cresc."B,/G,/E,/C,/)!ped-up!!ped! (6:4:6(G,,/D,/G,/B,/D/G/- (6:4:6G/D/B,/G,/D,/G,,/)!ped-up! | %71
!ped! (6:4:6(D,,/^A,,/E,/G,/C/E/ (6:4:6G/E/B,/G,/E,/C,/)!ped-up!!ped! (6:4:6(G,,/D,/G,/B,/D/G/- (6:4:6G/D/B,/G,/D,/G,,/)!ped-up! | %72
!mf!!ped! (6:4:6(B,,,/B,,/D,/A,/B,/D/ A2)!ped-up!!ped! (6:4:6(C,,/A,,/B,,/E,/A,/B,/ E2)!ped-up! | %73
!ped! (6:4:6(D,,/A,,/B,,/D,/A,/B,/ D2)!ped-up!!ped! (6:4:6(E,,/B,,/E,/G,/B,/E/) (3:2:2z2 z!ped-up! | %74
!ped! (3:2:2G,2 A, (3B,C=D!ped-up!!ped! A,4!ped-up! | %75
!ped! (3:2:2G,2 A, (3B,C=D!ped-up!!ped! A,4!ped-up! |!ped! E,,8!ped-up!!ped!!ped-up! | %77
!ped! z (B,2 A,!ped-up!!ped! [G,,D,]4)!ped-up! |[K:treble]!ped! (dfdf e2 ce | %79
 d2 Bd c2 Ac)!ped-up! | %80
!ped! (!arpeggio![Gd]2 !arpeggio![G,D]2) !arpeggio![Gd]2!ped-up![K:bass]!ped! D2 | D(FDF E2 CE | %82
 D2 B,D C2 A,C)!ped-up! |!ped! !arpeggio![G,B,D]4!ped-up!!ped! !arpeggio![G,B,D]4!ped-up! | %84
!ped! !arpeggio![B,DG]4!ped-up!!ped! !arpeggio![C^E^A]4!ped-up! || %85
[K:C]!ped! !arpeggio![_A,_C_E]4!ped-up![K:treble]!ped! !arpeggio![_C_E_A]4!ped-up! | %86
!ped! !arpeggio![_DF_B]4!ped-up!!ped! !arpeggio![_E_A_c]4!ped-up!!ped! || %87
[K:F] (!arpeggio![^CEGB^c]4!ped-up!!ped! [DFAd]4!ped-up! | %88
!ped! [A,CEA]4!ped-up!!ped! [B,DFB]4)!ped-up! | %89
!ped! !arpeggio![^CEGB^c]4!ped-up!!ped! [DFAd]4!ped-up! | %90
!ped! [A,CEA]4!ped-up!!ped! [B,DFB]4!ped-up! |!ped! [CE]4!ped-up!!ped! !>![C_Ec]4!ped-up! | %92
!ped! [C=E]4!ped-up!!ped! !>![C_Ec]4!ped-up! |[K:bass]!ped! [B,,F,]8- | [B,,F,]8!ped-up!!ped! | %95
 !arpeggio![G,,D,B,]8- | [G,,D,B,]4!ped-up!!ped! [C,B,]4!ped-up! | %97
!ped! !arpeggio![F,,C,A,]8!ped-up! | %98
!ped! !arpeggio![F,A,^CF] x x2!ped-up!!ped! !arpeggio![F,G,=B,DF]4!ped-up! | %99
!ped! [F,,C,]8!ped-up! |!ped! [F,A,^C]4!ped-up!!ped! [F,G,=B,D]4!ped-up!!ped! | %101
 !arpeggio![F,A,CF]4!ped-up!!ped! !arpeggio![F,G,_B,D]4- | %102
 [F,G,B,D]4!ped-up!!ped! !arpeggio![F,G,B,D]4!ped-up! |!ped! !arpeggio![F,,C,A,]8!ped-up! | %104
!ped! !arpeggio![F,,C,A,]8!ped-up! |] %105
V:3
 x8 | [F,B,]8 | x8 | [F,B,]8 | x8 | x2 [Ac]2 x2 A2 | x2 [FA]2 x2 [GB]2 | x2 [Ac]2 x2 A2 | %8
 x2 [FA]2 x2 [GB]2 | z!<(! [GBd] z [Ace] z [GBd] z [Ace] | z [GBd] z [Ace]!<)! z [FAc] z [FAd] | %11
 z [GBd] z [Ace] z [GBd] z [Ace] | z [GBd] z [Ace] z [c_eg]3 | z [df] z [df] z [Bd] z [Bd] | %14
 z [Bd] z [Bd] z [DG]3 | z [DF] z [CE] z [B,D] z [A,C] | z [F,B,] z [G,B,] z2 [F,B,]2 | %17
 z [F,B,] z [G,B,] z [F,B,]3 | z [=B,DF]3 x4 | %19
 x (3g/B/d/ x (3g/A/^c/ x[I:staff +1] (3F/[I:staff -1]_A/=c/ x (3f/G/=B/ | x8 | %21
 x (3g/B/d/ x (3g/A/^c/ x[I:staff +1] (3F/[I:staff -1]_A/=c/ x (3f/G/=B/ | x8 | e4 f4 | e4 _e4 | %25
 [df]2 [Bd]2 [df]4 | [df]2 [_Bd]2 [df]2 [=Bd]2 | [_Bd]2 [GB]2 [FA]4- | [FA]2 x2 (F"^64"EFE) | %29
 x4 z A3 | x8 | x4 z A3 | x8 | z [_c_e]2 [ce] z [=Bd]2 [Bd] | z [_c_e] x2 x4 | %35
 z [_c_e]2 [ce] z [=Bd]2 [Bd] | %36
 z [_c_e] [e_a]2 (6:4:6_c'/!>(!a/f/ c/_A/F/ (6:4:6c/A/F/!>)! c/A/F/ | %37
 (6:4:6=d/E/d/=c/G/c/ (6:4:6d/E/d/c/G/c/ (6:4:6c/F/c/B/F/B/ (6:4:6c/F/c/B/F/B/ | %38
 (6:4:6B/E/B/A/E/A/ (6:4:6B/E/B/A/E/A/ (6:4:6G/D/G/F/D/F/ (6:4:6G/D/G/F/D/!p!F/ | %39
 (6:4:6d/E/d/c/G/c/ (6:4:6d/E/d/c/G/c/ (6:4:6c/F/c/B/F/B/ (6:4:6c/F/c/B/F/B/ | %40
 (6:4:6B/E/B/A/E/A/ (6:4:6B/E/B/A/E/A/ (6:4:6G/D/G/F/D/F/ (6:4:6G/D/G/A/D/!mp!A/ | %41
 (6:4:6B/E/B/A/E/A/ (6:4:6B/E/B/A/E/A/ (6:4:6G/D/G/F/D/F/ (6:4:6G/D/G/A/D/!mp!A/- | %42
 (6:4:6A/D/A/B/F/B/ (6:4:6A/D/A/B/F/B/ (6:4:6c/G/c/d/B/d/ (6:4:6c/G/c/d/B/d/ | %43
 (6:4:6d'/d/b/f'/f/d'/ (6:4:6d'/d/b/f'/f/d'/!8va(! z2!8va)! x2 | x8 | %45
[K:bass] (6:4:6(A,/F,/A,/F,/A,/F,/ (6:4:6A,/F,/A,/F,/A,/F,/ (6:4:6A,/F,/A,/F,/A,/F,/ (6:4:6A,/F,/A,/F,/A,/F,/) | %46
 (6:4:6(A,/F,/A,/F,/A,/F,/ (6:4:6A,/F,/A,/F,/A,/F,/) (6:4:6A,/F,/A,/F,/A,/F,/ (6:4:6A,/F,/A,/F,/A,/F,/ | %47
 (6:4:6(A,/F,/A,/F,/A,/F,/ (6:4:6A,/F,/A,/F,/A,/F,/ (6:4:6A,/F,/A,/F,/A,/F,/ (6:4:6A,/F,/A,/F,/A,/F,/) | %48
 (6:4:6(A,/F,/A,/F,/A,/F,/ (6:4:6A,/F,/A,/F,/A,/F,/) (6:4:6(A,/F,/A,/F,/A,/F,/ (6:4:6A,/F,/A,/F,/A,/F,/) | %49
[K:treble] [A,C]2 D2 [DF]4 | x4 (D!p!C) (dc) | [A,C]2 D2 [DF]4 | x4 (DC) (dc) | %53
(6:4:6x/f/A/f/a/b/ (6:4:4c'/a/e/ x3/2 (6:4:6e'/c'/e/ d'/b/d/ (6:4:6d'/b/d/ f'/c'/f/ | %54
 (6:4:6f'/d'/a/f'/d'/a/ (6:4:6e'/=b/g/d'/a/f/ (3(d'^ge) (3(d^GE) | %55
(6:4:6x/f/A/f/a/b/ (6:4:4c'/a/e/ x3/2 (6:4:6e'/c'/e/ d'/b/d/ (6:4:6d'/b/d/ f'/c'/f/ | %56
 (6:4:6f'/d'/a/f'/d'/a/ (6:4:6e'/=b/g/d'/a/f/ (6:4:6f/d/A/f/d/A/ (6:4:6e/"_dim."=B/G/d/-A/F/- | %57
 (6:4:6F/A/F/d/A/F/ (6:4:6=B/G/E/ A/F/D/ (6:4:6D/A/F/ B/G/E/ (6:4:6A/F/D/ B/G/E/ | %58
 (6:4:6c/G/C/G/C/G/ (6:4:6C/G/C/G/C/G/ (6:4:6c/G/C/d/G/D/ (6:4:6c/G/C/d/G/D/ | %59
 (6:4:6G/D/G,/D/G,/D/ (6:4:6G,/D/G,/D/G,/D/ (6:4:6c/G/C/d/G/D/ (6:4:6c/G/C/d/G/D/ | %60
 (6:4:6g/d/G/g/d/G/ (6:4:6f/d/F/g/d/G/ (6:4:6f/d/A/g/e/=B/ (6:4:6f/d/A/g/e/B/ | %61
 (6:4:6e/=B/^G/[e^g]/B/G/ (6:4:6d/B/^F/e/B/G/ (6:4:6=f/d/A/=g/e/B/ (6:4:6=f/d/A/a/f/c/ || %62
[K:E][I:staff +1] E>[I:staff -1]F x2 x4 | x8 | e8 | d4 =d4 | %66
 (3[ca][Ae][ec'] (3[ae'][ec'][af'] (3[c'g'][ge'][c'g'] (3[ge'][ec'][ec'] | %67
 (3[db][B=g][db] (3[Bg][=Gd][db] (3[ec'][c^g][ec'] (3[cg][^Ge][cg] | %68
 (3[ca][Ae][ec'] (3[ae'][ec'][af'] (3[c'g'][ge'][c'g'] (3[ge']e[ec'] | %69
 (3[db][B=g][db] (3[Bg][=Gd][db] (3[ec'][c^g][ec'] (3[cg][^Ge][cg] | %70
 (3[ec'][cg][ec'] (3[e^a]"_cresc."[^Ag][ec'] (3[gd'][db][gd'] (3[db][Bg][db] | %71
 (3[ec']c[Gg] (3[e^a]^A[cc'] (3[gd'][db][gd'] (3[db]B[Gg] | d'4 a4 | d4 G4 | =D4 ^D C2 B, | %75
 [=DG]4 ^D C2 B, | x8 | x8 | d'f'd'f' e'2 c'e' | d'2 bd' c'2 ac' | x8 | d(fdf e2 ce | %82
 d2 Bd c2 Ac) | x8 | x8 ||[K:C] x8 | x8 ||[K:F]!8va(! (!arpeggio![egb^c']4 [fad']4 | %88
 [eac']4 [dfa]4) | !arpeggio![egb^c']4 [fad']4 | [ea=c']4 [dfa]4!8va)! | e4 !>!_e4 | =e4 !>!_e4 | %93
 (D4 _D4 | C4 ^C4) | D8- | D4 E4 | !arpeggio![CFA]8 | [A^c]4 [G=Bd]4 | [F,A,]8 | x8 | %101
 [A^c]4 [GBdg]4- | [GBdg]4 [GBdg]4 | x3/4 x/4x/4x/4x/4x/4 x6 | x3/4 x/4x/4x/4x/4x/4 x6 |] %105
V:4
 x8 | x8 | x8 | x8 | x8 | x8 | x2 C2 x4 | x8 | x2 C2 x4 | x8 | x8 | x8 | x8 | x8 | x8 | x8 | x8 | %17
 x8 | x8 | (3B,/D/E/G (3A,/^C/E/G (3_A,/=C/D/ x (3G,/=B,/D/F | ^F,4 (3(G,,D,G, (3B,DF) | %21
 (3B,/D/E/G (3A,/^C/E/G (3_A,/=C/D/ x (3G,/=B,/D/F | ^F,4 (3(G,,D,G, (3B,DF) | C,,4 D,,4 | %24
 E,,4 F,,4 | B,,,4 [G,,,G,,]4 | B,,,4 [G,,,G,,]4 | x8 | x4 [C,,G,,]4 | %29
 (6:4:6(_E/G/E/G/E/C/) (6:4:6B,/C/E/G/E/C/ (6:4:6A,/C/D/^F/D/F/ (6:4:6D/F/D/F/D/C/ | %30
 (3:2:6G,/C/_E/B/E/C/ (3:2:6A/E/C/G/E/C/ D,,4 | %31
 (6:4:6(_E/G/E/G/E/C/) (6:4:6B,/C/E/G/E/C/ (6:4:6A,/C/D/^F/D/F/ (6:4:6D/F/D/F/D/C/ | x4 _A,,,4 | %33
 F,4 D,4 | F,4 =B,4 | F,4 D,4 | F,4 _D,,4 | x8 | (A,,E,CE,) B,,4 | x8 | x8 | (A,,E,CE, B,,4) | %42
 G,,4 x4 |[K:treble] [B,D]4[K:bass] F,,,4 | x8 | D,,8- | D,,4 D,,4 | D,,8- | D,,4 D,,4 | x8 | x8 | %51
 x8 | x8 |[K:treble] (x2 [EF]2 D2 C2) |{/=B,} B,4[K:bass] x4 |[K:treble] (x2 [EF]2 D2 C2) | %56
{/=B,} B,4 B,4 |[K:bass] [G,,D,]4 [C,,G,,]4 | F,2 E,2 !arpeggio![F,,_E,]4 | %59
 B,,,4 !arpeggio![F,,_E,]4 | x4[K:treble] ([=B,D]4 | =B,4) [B,D]4 ||[K:E][K:bass] x8 | %63
 (5:4:5!>!D/B,/G,/E,/B,,/ (5:4:5E,,/B,,/E,/G,/B,/ (5:4:5!>!C/A,/F,/E,/B,,/ (5:4:5E,,/B,,/E,/F,/A,/ | %64
 (5:4:5(E/B,/G,/E,/B,,/ (5:4:5E,,/B,,/E,/G,/B,/) (5:4:5(E/B,/G,/E,/B,,/ (5:4:5E,,/B,,/E,/G,/B,/) | %65
 (5:4:5!>!D/B,/G,/E,/B,,/ (5:4:5E,,/B,,/E,/G,/B,/ (5:4:5!>!=D/B,/G,/E,/B,,/ (5:4:5(E,,/B,,/E,/G,/B,/) | %66
 x8 | x8 | x8 | x8 | x8 | x8 | B,,,4 C,,4 | D,,4 E,,4 | [^E,,B,,]4 [F,,B,,]4 | [^E,,B,,]4 B,,4 | %76
 x8 | x8 |[K:treble] G8- | G8 | x6[K:bass] !arpeggio!G,2- | G,8- | G,8 | %83
 z2 !tenuto!^E,2 z2 !tenuto!E,2 | z2 !tenuto!^E,2 z2 !tenuto!E,2 || %85
[K:C] z2 !tenuto!F,2[K:treble] z2 !tenuto!F,2 | z2 !tenuto!F,2 z2 !tenuto!F,2 || %87
[K:F] z2 F,2 z2 F,2 | z2 F,2 z2 F,2 | z2 F,2 z2 F,2 | z2 F,2 z2 F,2 | z2 F,2 z2 F,2 | %92
 z2 F,2 z2 F,2 |[K:bass] x8 | x15/2 x/4-x/4- | x8 | x8 | x8 | x8 | x8 | x4 x7/2 (3x/4-x/4-x/4- | %101
 x8 | x8 | x/4x/4x/4 x/4 x/ x/ x6 | x/4x/4x/4 x/4 x/ x/ x6 |] %105
V:5
 x8 | x8 | x8 | x8 | x8 | x8 | x8 | x8 | x8 | x8 | x8 | x8 | x8 | x8 | x8 | x8 | x8 | x8 | x8 | %19
 x8 | x8 | x8 | x8 | x8 | x8 | x8 | x8 | x8 | x8 | x8 | x8 | x8 | x8 | x8 | x8 | x8 | x8 | x8 | %38
 x8 | x8 | x8 | x8 | x8 |[K:treble] x4[K:bass] x4 | x8 | x8 | x8 | x8 | x8 | x8 | x8 | x8 | x8 | %53
[K:treble] x4 F4 | x4[K:bass] x4 |[K:treble] x4 F4 | x8 |[K:bass] x8 | x7/2 x/4-x/4- x4 | %59
 x7/2 x/4-x/4- x4 | x4[K:treble] x4 | x8 ||[K:E][K:bass] x8 | x8 | x8 | x8 | x8 | x8 | x8 | x8 | %70
 x8 | x8 | x8 | x8 | x8 | x8 | x8 | x8 |[K:treble] x8 | x8 | x6[K:bass] x2 | x8 | x8 | x8 | x8 || %85
[K:C] x4[K:treble] x4 | x4 x2 x3/2 (9:8:9x/16x/16x/16x/16x/16x/16x/16x/16x/16 || %87
[K:F] x4 !arpeggio!x4 | !arpeggio!x4 !arpeggio!x4 | !arpeggio!x2 x2 !arpeggio!x4 | %90
 !arpeggio!x4 !arpeggio!x4 | x8 | x8 |[K:bass] x8 | x8 | x8 | x8 | x8 | x8 | x8 | x8 | x8 | x8 | %103
 x8 | x8 |] %105
V:6
 x8 | x8 | x8 | x8 | x8 | x8 | x8 | x8 | x8 | x8 | x8 | x8 | x8 | x8 | x8 | x8 | x8 | x8 | x8 | %19
 x8 | x8 | x8 | x8 | x8 | x8 | x8 | x8 | x8 | x8 | x8 | x8 | x8 | x8 | x8 | x8 | x8 | x8 | x8 | %38
 x8 | x8 | x8 | x8 | x8 | x4!8va(! x2!8va)! x2 | x8 |[K:bass] x8 | x8 | x8 | x8 |[K:treble] x8 | %50
 x8 | x8 | x8 | x8 | x8 | x8 | x8 | x8 | x8 | x8 | x8 | x8 ||[K:E] x8 | x8 | x8 | x8 | x8 | x8 | %68
 x8 | x8 | x8 | x8 | x8 | x8 | x8 | x8 | x8 | x8 | x8 | x8 | %80
 !arpeggio!x2 !arpeggio!x2 !arpeggio!x2 !arpeggio!x2 | x8 | x8 | x8 | x8 ||[K:C] x8 | x8 || %87
[K:F]!8va(! x4 !arpeggio!x4 | !arpeggio!x4 !arpeggio!x4 | x4 !arpeggio!x4 | %90
 !arpeggio!x4 !arpeggio!x4!8va)! | x8 | x8 | x8 | A8 | x8 | !tenuto!A4 !tenuto!A4 | x8 | %98
 !arpeggio!x4 !arpeggio!x4 | x8 | x8 | x4 !arpeggio!x4 | x4 !arpeggio!x4 | x8 | x8 |] %105

